svgs/barmer.svg

<svg xmlns="http://www.w3.org/2000/svg" viewBox="0 0 192 192"><path d="M36.48 175.5v-159m.132 0h74.582c11.781.047 23.073 4.26 31.379 11.708 8.305 7.449 12.965 17.54 12.947 28.042.018 10.502-4.642 20.593-12.947 28.042-8.306 7.448-19.598 11.661-31.379 11.708H36.612m0 0h74.582c11.781.047 23.073 4.26 31.379 11.708 8.305 7.449 12.965 17.54 12.947 28.042.012 6.967-2.035 13.815-5.932 19.853-3.898 6.039-9.511 11.058-16.273 14.55-6.762 3.492-14.438 5.337-22.253 5.347h-74.45" fill="none" stroke="#000" stroke-width="12" stroke-linecap="round" stroke-linejoin="round"/></svg>

<svg
    xmlns="http://www.w3.org/2000/svg"
    viewBox="0 0 192 192"
    id="vector">
    <path
        id="path"
        d="M 36.48 175.5 L 36.48 16.5 M 36.612 16.5 L 111.194 16.5 C 122.975 16.547 134.267 20.76 142.573 28.208 C 150.878 35.657 155.538 45.748 155.52 56.25 C 155.538 66.752 150.878 76.843 142.573 84.292 C 134.267 91.74 122.975 95.953 111.194 96 L 36.612 96 M 36.612 96 L 111.194 96 C 122.975 96.047 134.267 100.26 142.573 107.708 C 150.878 115.157 155.538 125.248 155.52 135.75 C 155.532 142.717 153.485 149.565 149.588 155.603 C 145.69 161.642 140.077 166.661 133.315 170.153 C 126.553 173.645 118.877 175.49 111.062 175.5 L 36.612 175.5"
        fill="none"
        stroke="#000000"
        stroke-width="12"
        stroke-linecap="round"
        stroke-linejoin="round"/>
</svg>
